icons/fill-new-arrow-chevron-right-circle.svg

<svg xmlns="http://www.w3.org/2000/svg" width="32px" height="32px" viewBox="0 0 32 32" version="1.1">
    <title>fill-new-arrow-chevron-right-circle</title>
    <g id="fill-new-arrow-chevron-right-circle" stroke-width="1" fill-rule="evenodd">
        <path d="M16,2 C23.7319865,2 30,8.2680135 30,16 C30,23.7319865 23.7319865,30 16,30 C8.2680135,30 2,23.7319865 2,16 C2,8.2680135 8.2680135,2 16,2 Z M14.7071068,10.2928932 C14.3165825,9.90236893 13.6834175,9.90236893 13.2928932,10.2928932 L13.2097046,10.3871006 C12.9046797,10.7793918 12.9324093,11.3466228 13.2928932,11.7071068 L17.585,16 L13.2928932,20.2928932 C12.9023689,20.6834175 12.9023689,21.3165825 13.2928932,21.7071068 C13.6834175,22.0976311 14.3165825,22.0976311 14.7071068,21.7071068 L19.7071068,16.7071068 C20.0976311,16.3165825 20.0976311,15.6834175 19.7071068,15.2928932 L14.7071068,10.2928932 Z" id="&#24418;&#29366;" />
    </g>
</svg>

<svg xmlns="http://www.w3.org/2000/svg" viewBox="0 0 32 32"><path fill="currentColor" d="M16 2c7.732 0 14 6.268 14 14s-6.268 14-14 14S2 23.732 2 16 8.268 2 16 2m-1.293 8.293a1 1 0 0 0-1.414 0l-.083.094a1 1 0 0 0 .083 1.32L17.585 16l-4.292 4.293a1 1 0 0 0 1.414 1.414l5-5a1 1 0 0 0 0-1.414z"/></svg>
